X:155
T: DER KUCKUK UND DER ESEL
N: B0646
O: Europa, Mitteleuropa, Deutschland
R: Kinder -, Jahreszeiten - Lied, Fruehling, Tier
M: 4/4
L: 1/8
K: F
c2 | A2c2A2c2 | B2B2z2
B2 | G2B2G2B2 | A4z2
cB | A2A2A2A2 | BcB2z2
BA | G2G2G2G2 | ABA2z2
F2 | F2G2A2B2 | cdc2z2
B2 | A2A2G2G2 | F4z2

@@@ Tune index: 2373
